(
s.waitForBoot({
	a=FoldersOfSound.new(s);
	a.playFolder(thisProcess.nowExecutingPath.dirname,10);
	// a.play(thisProcess.nowExecutingPath.dirname++"/internet_archive_downloads/aporee_14575_16967/neoscenes20120815174rest.ogg");
	// a.play(thisProcess.nowExecutingPath.dirname++"/internet_archive_downloads/aporee_14203_16535/neoscenes20120717148sq.ogg");
	// a.play(thisProcess.nowExecutingPath.dirname++"/internet_archive_downloads/aporee_1715_2463/forestwalk.ogg");
});
)
